svgs/regular/square-nfi.svg

<svg xmlns="http://www.w3.org/2000/svg" viewBox="0 0 448 512"><!--! Font Awesome Pro 6.6.0 by @fontawesome - https://fontawesome.com License - https://fontawesome.com/license (Commercial License) Copyright 2024 Fonticons, Inc. --><path d="M64 80l320 0c8.8 0 16 7.2 16 16l0 32 48 0 0-32c0-35.3-28.7-64-64-64L64 32C28.7 32 0 60.7 0 96l0 32 48 0 0-32c0-8.8 7.2-16 16-16zM48 384L0 384l0 32c0 35.3 28.7 64 64 64l320 0c35.3 0 64-28.7 64-64l0-32-48 0 0 32c0 8.8-7.2 16-16 16L64 432c-8.8 0-16-7.2-16-16l0-32zm1-223c-10.1 3.1-17 12.4-17 23l0 144c0 13.3 10.7 24 24 24s24-10.7 24-24l0-64.7 52 78c5.9 8.8 16.8 12.7 26.9 9.7s17-12.4 17-23l0-144c0-13.3-10.7-24-24-24s-24 10.7-24 24l0 64.7-52-78C70.1 161.9 59.2 158 49 161zm167 23l0 80 0 64c0 13.3 10.7 24 24 24s24-10.7 24-24l0-40 40 0c13.3 0 24-10.7 24-24s-10.7-24-24-24l-40 0 0-32 40 0c13.3 0 24-10.7 24-24s-10.7-24-24-24l-64 0c-13.3 0-24 10.7-24 24zm200 0c0-13.3-10.7-24-24-24s-24 10.7-24 24l0 144c0 13.3 10.7 24 24 24s24-10.7 24-24l0-144z"/></svg>

<svg xmlns="http://www.w3.org/2000/svg" viewBox="0 0 448 512"><!--! Font Awesome Pro 6.4.2 by @fontawesome - https://fontawesome.com License - https://fontawesome.com/license (Commercial License) Copyright 2023 Fonticons, Inc. --><path d="M64 80H384c8.8 0 16 7.2 16 16v32h48V96c0-35.3-28.7-64-64-64H64C28.7 32 0 60.7 0 96v32H48V96c0-8.8 7.2-16 16-16zM48 384H0v32c0 35.3 28.7 64 64 64H384c35.3 0 64-28.7 64-64V384H400v32c0 8.8-7.2 16-16 16H64c-8.8 0-16-7.2-16-16V384zm1-223c-10.1 3.1-17 12.4-17 23V328c0 13.3 10.7 24 24 24s24-10.7 24-24V263.3l52 78c5.9 8.8 16.8 12.7 26.9 9.7s17-12.4 17-23V184c0-13.3-10.7-24-24-24s-24 10.7-24 24v64.7l-52-78C70.1 161.9 59.2 158 49 161zm167 23v80 64c0 13.3 10.7 24 24 24s24-10.7 24-24V288h40c13.3 0 24-10.7 24-24s-10.7-24-24-24H264V208h40c13.3 0 24-10.7 24-24s-10.7-24-24-24H240c-13.3 0-24 10.7-24 24zm200 0c0-13.3-10.7-24-24-24s-24 10.7-24 24V328c0 13.3 10.7 24 24 24s24-10.7 24-24V184z"/></svg>
